src/assets/sensorial.svg

<svg width="512" height="512" viewBox="0 0 512 512" fill="none" xmlns="http://www.w3.org/2000/svg">
<g clip-path="url(#clip0)">
<path d="M441.576 64.7751C452.184 70.0794 457.571 82.1198 454.461 93.5628L403.353 281.451L401.458 365.167C400.933 388.331 393.63 410.836 380.457 429.901L365.996 450.83V496.565C365.996 505.09 359.085 512 350.561 512H201.268C192.743 512 185.833 505.089 185.833 496.565V442.518C162.854 431.559 146.447 410.342 141.627 385.344L140.164 377.763L59.8468 333.681C48.3523 327.367 41.8325 315.491 41.8325 303.224C41.8325 297.693 43.1509 292.09 45.9421 286.879C54.5733 270.749 74.2458 264.096 90.9005 271.666L152.617 299.722L156.015 295.129C159.569 290.329 163.483 285.818 167.747 281.657C172.001 277.496 176.584 273.674 181.466 270.234L123.231 56.1439C122.521 53.538 122.181 50.9116 122.181 48.3264C122.181 36.1624 129.7 24.8636 141.606 20.4656C157.231 14.6977 174.534 22.886 179.983 38.6137L243.12 220.847V28.5715C243.12 20.6819 246.313 13.5339 251.484 8.36339C256.654 3.19292 263.792 0 271.681 0C287.193 0 299.872 12.3803 300.243 27.8814L304.558 206.736L331.018 35.0603C333.037 22.0002 344.284 12.782 356.953 12.782C358.797 12.782 360.671 12.9777 362.546 13.3794C375.441 16.1809 384.268 28.0977 383.166 41.2505L369.313 206.736L406.587 80.0084C409.822 68.9979 419.854 62.1383 430.473 62.1383C434.191 62.1383 437.981 62.9829 441.576 64.7751Z" fill="#C07B59"/>
<path d="M215.323 428.249C215.323 422.523 212.314 417.255 207.453 414.229C188.625 402.506 175.368 383.404 171.117 361.364C170.19 356.562 167.173 352.422 162.886 350.068L89.337 309.701C77.8425 303.387 71.3227 291.511 71.3227 279.244C71.3227 275.732 71.8676 272.186 72.9707 268.734C61.8707 269.892 51.5617 276.378 45.9421 286.878C43.1509 292.09 41.8325 297.693 41.8325 303.224C41.8325 315.491 48.3523 327.367 59.8468 333.68L140.164 377.763L141.627 385.344C146.447 410.341 162.854 431.559 185.833 442.518V496.565C185.833 505.09 192.744 512 201.268 512H215.323V428.249Z" fill="#CB8874"/>
<path d="M213.247 410.935C208.981 410.935 205.522 407.476 205.522 403.21V335.304C205.522 331.038 208.981 327.579 213.247 327.579C217.513 327.579 220.972 331.038 220.972 335.304V403.21C220.972 407.476 217.513 410.935 213.247 410.935Z" fill="#EE6161"/>
<path d="M189.239 400.991C187.263 400.991 185.285 400.237 183.777 398.728C180.76 395.711 180.76 390.82 183.777 387.804L231.794 339.787C234.81 336.771 239.702 336.771 242.718 339.787C245.734 342.804 245.734 347.696 242.718 350.711L194.701 398.728C193.193 400.236 191.216 400.991 189.239 400.991Z" fill="#EE6161"/>
<path d="M247.2 376.982H179.294C175.027 376.982 171.569 373.523 171.569 369.257C171.569 364.991 175.027 361.532 179.294 361.532H247.2C251.466 361.532 254.925 364.991 254.925 369.257C254.925 373.523 251.466 376.982 247.2 376.982Z" fill="#EE6161"/>
<path d="M237.256 400.991C235.279 400.991 233.301 400.237 231.794 398.728L183.777 350.711C180.76 347.695 180.76 342.803 183.777 339.787C186.794 336.771 191.685 336.771 194.701 339.787L242.718 387.804C245.734 390.821 245.734 395.712 242.718 398.728C241.21 400.236 239.232 400.991 237.256 400.991Z" fill="#EE6161"/>
<path d="M213.247 394.345C227.103 394.345 238.335 383.113 238.335 369.257C238.335 355.401 227.103 344.169 213.247 344.169C199.391 344.169 188.159 355.401 188.159 369.257C188.159 383.113 199.391 394.345 213.247 394.345Z" fill="#F37C7C"/>
<path d="M181.461 270.237C195.604 258.7 201.638 239.912 196.847 222.298L146.611 37.6106C145.9 35.0047 145.56 32.3783 145.56 29.7931C145.56 26.0295 146.294 22.3494 147.642 18.9299C145.625 19.2245 143.597 19.7302 141.606 20.4656C129.699 24.8636 122.181 36.1624 122.181 48.3264C122.181 50.9116 122.521 53.5381 123.231 56.1439L181.466 270.234C181.463 270.236 181.458 270.24 181.461 270.237Z" fill="#CB8874"/>
<path d="M129.207 233.804C124.941 233.804 121.482 230.346 121.482 226.079V110.864C121.482 106.598 124.941 103.14 129.207 103.14C133.473 103.14 136.932 106.598 136.932 110.864V226.079C136.932 230.346 133.473 233.804 129.207 233.804Z" fill="#8EBAC5"/>
<path d="M88.4726 216.931C86.4961 216.931 84.5185 216.177 83.0106 214.668C79.9938 211.651 79.9938 206.76 83.0106 203.744L164.481 122.274C167.497 119.258 172.389 119.258 175.404 122.274C178.421 125.291 178.421 130.182 175.404 133.198L93.9345 214.668C92.4267 216.177 90.4491 216.931 88.4726 216.931Z" fill="#8EBAC5"/>
<path d="M186.815 176.197H71.5998C67.3337 176.197 63.875 172.738 63.875 168.472C63.875 164.206 67.3337 160.747 71.5998 160.747H186.815C191.081 160.747 194.54 164.206 194.54 168.472C194.54 172.738 191.081 176.197 186.815 176.197Z" fill="#8EBAC5"/>
<path d="M169.942 216.931C167.965 216.931 165.987 216.177 164.48 214.668L83.0097 133.198C79.9929 130.181 79.9929 125.29 83.0097 122.274C86.0265 119.258 90.9178 119.258 93.9336 122.274L175.403 203.744C178.42 206.761 178.42 211.652 175.403 214.668C173.896 216.177 171.919 216.931 169.942 216.931Z" fill="#8EBAC5"/>
<path d="M129.207 211.039C152.716 211.039 171.774 191.981 171.774 168.472C171.774 144.963 152.716 125.905 129.207 125.905C105.698 125.905 86.6406 144.963 86.6406 168.472C86.6406 191.981 105.698 211.039 129.207 211.039Z" fill="#A8D3D8"/>
<path d="M122.968 163.718H118.265C113.999 163.718 110.54 160.26 110.54 155.994C110.54 151.727 113.999 148.269 118.265 148.269H122.968C127.234 148.269 130.693 151.727 130.693 155.994C130.693 160.26 127.234 163.718 122.968 163.718Z" fill="#8EBAC5"/>
<path d="M141.599 185.665H137.836C133.57 185.665 130.111 182.207 130.111 177.94C130.111 173.674 133.57 170.216 137.836 170.216H141.599C145.865 170.216 149.323 173.674 149.323 177.94C149.323 182.207 145.865 185.665 141.599 185.665Z" fill="#8EBAC5"/>
<path d="M403.354 437.331C399.088 437.331 395.629 433.872 395.629 429.606V311.429C395.629 307.163 399.088 303.704 403.354 303.704C407.62 303.704 411.079 307.163 411.079 311.429V429.606C411.079 433.872 407.62 437.331 403.354 437.331Z" fill="#6ED5A1"/>
<path d="M361.573 420.024C359.596 420.024 357.619 419.27 356.111 417.762C353.094 414.745 353.094 409.853 356.111 406.838L439.675 323.274C442.691 320.257 447.583 320.257 450.598 323.274C453.615 326.291 453.615 331.182 450.598 334.198L367.035 417.762C365.527 419.269 363.549 420.024 361.573 420.024Z" fill="#6ED5A1"/>
<path d="M462.443 378.242H344.266C340 378.242 336.541 374.783 336.541 370.517C336.541 366.251 340 362.792 344.266 362.792H462.443C466.709 362.792 470.168 366.251 470.168 370.517C470.168 374.783 466.709 378.242 462.443 378.242Z" fill="#6ED5A1"/>
<path d="M445.137 420.024C443.16 420.024 441.182 419.27 439.675 417.762L356.111 334.198C353.094 331.181 353.094 326.29 356.111 323.274C359.128 320.257 364.019 320.257 367.035 323.274L450.598 406.838C453.615 409.854 453.615 414.746 450.598 417.762C449.091 419.269 447.113 420.024 445.137 420.024Z" fill="#6ED5A1"/>
<path d="M403.354 414.178C427.467 414.178 447.015 394.631 447.015 370.518C447.015 346.404 427.467 326.857 403.354 326.857C379.241 326.857 359.694 346.404 359.694 370.518C359.694 394.631 379.241 414.178 403.354 414.178Z" fill="#B0E7C9"/>
<path d="M400.528 363.146H395.698C391.432 363.146 387.974 359.687 387.974 355.421C387.974 351.155 391.432 347.696 395.698 347.696H400.528C404.794 347.696 408.253 351.155 408.253 355.421C408.253 359.687 404.794 363.146 400.528 363.146Z" fill="#6ED5A1"/>
<path d="M413.903 388.41H409.445C405.178 388.41 401.72 384.951 401.72 380.685C401.72 376.419 405.178 372.96 409.445 372.96H413.903C418.169 372.96 421.628 376.419 421.628 380.685C421.628 384.951 418.169 388.41 413.903 388.41Z" fill="#6ED5A1"/>
<path d="M243.119 220.945C257.727 220.945 269.589 209.141 269.663 194.534L270.549 16.9256C270.561 14.225 270.935 11.6027 271.626 9.11115C272.508 5.9275 273.912 2.95499 275.737 0.291483C274.412 0.101967 273.058 0 271.681 0C263.792 0 256.654 3.19292 251.484 8.36339C246.313 13.5339 243.12 20.6819 243.173 28.5756L243.119 220.945Z" fill="#CB8874"/>
<path d="M304.682 205.935C320.091 205.935 333.189 194.676 335.505 179.442L359.358 22.4421C359.762 19.7714 360.513 17.2315 361.559 14.8677C361.791 14.3445 362.061 13.8377 362.322 13.332C360.525 12.9633 358.721 12.782 356.953 12.782C344.284 12.782 333.037 22.0002 331.018 35.0603L304.682 205.935Z" fill="#CB8874"/>
<path d="M369.646 205.935C384.997 205.935 398.462 195.695 402.563 180.903L434.513 65.6568C434.797 64.631 435.151 63.6319 435.527 62.6637C433.847 62.3115 432.148 62.1384 430.474 62.1384C419.855 62.1384 409.823 68.9981 406.589 80.0085L371.512 199.261L369.646 205.935Z" fill="#CB8874"/>
</g>
<defs>
<clipPath id="clip0">
<rect width="512" height="512" fill="white"/>
</clipPath>
</defs>
</svg>

<svg width="512" height="512" fill="none" xmlns="http://www.w3.org/2000/svg"><g clip-path="url(#a)"><path d="M441.576 64.775c10.608 5.304 15.995 17.345 12.885 28.788L403.353 281.45l-1.895 83.716a118.61 118.61 0 0 1-21.001 64.734l-14.461 20.929v45.735c0 8.525-6.911 15.435-15.435 15.435H201.268c-8.525 0-15.435-6.911-15.435-15.435v-54.047a80.155 80.155 0 0 1-44.206-57.174l-1.463-7.581-80.317-44.082c-11.495-6.314-18.014-18.19-18.014-30.457a34.51 34.51 0 0 1 4.11-16.345c8.63-16.13 28.303-22.783 44.957-15.213l61.717 28.056 3.398-4.593a111.56 111.56 0 0 1 11.732-13.472 111.31 111.31 0 0 1 13.719-11.423l-58.235-214.09a29.715 29.715 0 0 1-1.05-7.818c0-12.164 7.519-23.462 19.425-27.86 15.625-5.768 32.928 2.42 38.377 18.148l63.137 182.233V28.571c0-7.89 3.193-15.037 8.364-20.208A28.464 28.464 0 0 1 271.681 0c15.512 0 28.191 12.38 28.562 27.881l4.315 178.855 26.46-171.676c2.019-13.06 13.266-22.278 25.935-22.278 1.844 0 3.718.196 5.593.597 12.895 2.802 21.722 14.719 20.62 27.872l-13.853 165.485 37.274-126.728c3.235-11.01 13.267-17.87 23.886-17.87 3.718 0 7.508.845 11.103 2.637Z" fill="#C07B59"/><path d="M215.323 428.249c0-5.726-3.009-10.994-7.87-14.02a80.162 80.162 0 0 1-36.336-52.865 16.443 16.443 0 0 0-8.231-11.296l-73.549-40.367c-11.495-6.314-18.014-18.19-18.014-30.457 0-3.512.545-7.058 1.648-10.51-11.1 1.158-21.41 7.644-27.029 18.144a34.518 34.518 0 0 0-4.11 16.346c0 12.267 6.52 24.143 18.015 30.456l80.317 44.083 1.463 7.581a80.157 80.157 0 0 0 44.206 57.174v54.047c0 8.525 6.911 15.435 15.435 15.435h14.055v-83.751Z" fill="#CB8874"/><path d="M213.247 410.935a7.726 7.726 0 0 1-7.725-7.725v-67.906a7.726 7.726 0 0 1 15.45 0v67.906a7.726 7.726 0 0 1-7.725 7.725Z" fill="#EE6161"/><path d="M189.239 400.991a7.699 7.699 0 0 1-5.462-2.263 7.724 7.724 0 0 1 0-10.924l48.017-48.017a7.725 7.725 0 0 1 10.924 10.924l-48.017 48.017a7.701 7.701 0 0 1-5.462 2.263Z" fill="#EE6161"/><path d="M247.2 376.982h-67.906a7.725 7.725 0 1 1 0-15.45H247.2a7.726 7.726 0 0 1 0 15.45Z" fill="#EE6161"/><path d="M237.256 400.991a7.695 7.695 0 0 1-5.462-2.263l-48.017-48.017a7.725 7.725 0 0 1 10.924-10.924l48.017 48.017a7.725 7.725 0 0 1-5.462 13.187Z" fill="#EE6161"/><path d="M213.247 394.345c13.856 0 25.088-11.232 25.088-25.088 0-13.856-11.232-25.088-25.088-25.088-13.856 0-25.088 11.232-25.088 25.088 0 13.856 11.232 25.088 25.088 25.088Z" fill="#F37C7C"/><path d="M181.461 270.237c14.143-11.537 20.177-30.325 15.386-47.939L146.611 37.611a29.675 29.675 0 0 1-1.051-7.818c0-3.764.734-7.444 2.082-10.863a29.9 29.9 0 0 0-6.036 1.536c-11.907 4.398-19.425 15.696-19.425 27.86 0 2.586.34 5.212 1.05 7.818l58.235 214.09c-.003.002-.008.006-.005.003Z" fill="#CB8874"/><path d="M129.207 233.804a7.725 7.725 0 0 1-7.725-7.725V110.864a7.725 7.725 0 0 1 7.725-7.724 7.725 7.725 0 0 1 7.725 7.724v115.215a7.725 7.725 0 0 1-7.725 7.725Z" fill="#8EBAC5"/><path d="M88.473 216.931a7.698 7.698 0 0 1-5.462-2.263 7.724 7.724 0 0 1 0-10.924l81.47-81.47a7.724 7.724 0 0 1 10.923 10.924l-81.47 81.47a7.697 7.697 0 0 1-5.461 2.263Z" fill="#8EBAC5"/><path d="M186.815 176.197H71.6a7.725 7.725 0 0 1 0-15.45h115.215a7.726 7.726 0 0 1 0 15.45Z" fill="#8EBAC5"/><path d="M169.942 216.931a7.695 7.695 0 0 1-5.462-2.263l-81.47-81.47a7.724 7.724 0 1 1 10.924-10.924l81.469 81.47a7.724 7.724 0 0 1 0 10.924 7.693 7.693 0 0 1-5.461 2.263Z" fill="#8EBAC5"/><path d="M129.207 211.039c23.509 0 42.567-19.058 42.567-42.567s-19.058-42.567-42.567-42.567-42.566 19.058-42.566 42.567 19.057 42.567 42.566 42.567Z" fill="#A8D3D8"/><path d="M122.968 163.718h-4.703a7.725 7.725 0 1 1 0-15.449h4.703a7.725 7.725 0 1 1 0 15.449ZM141.599 185.665h-3.763a7.725 7.725 0 1 1 0-15.449h3.763a7.724 7.724 0 0 1 7.724 7.724 7.724 7.724 0 0 1-7.724 7.725Z" fill="#8EBAC5"/><path d="M403.354 437.331a7.726 7.726 0 0 1-7.725-7.725V311.429a7.726 7.726 0 0 1 15.45 0v118.177a7.726 7.726 0 0 1-7.725 7.725Z" fill="#6ED5A1"/><path d="M361.573 420.024a7.724 7.724 0 0 1-5.462-13.186l83.564-83.564a7.722 7.722 0 0 1 10.923 0 7.724 7.724 0 0 1 0 10.924l-83.563 83.564a7.706 7.706 0 0 1-5.462 2.262Z" fill="#6ED5A1"/><path d="M462.443 378.242H344.266a7.726 7.726 0 0 1 0-15.45h118.177a7.726 7.726 0 0 1 0 15.45Z" fill="#6ED5A1"/><path d="M445.137 420.024a7.699 7.699 0 0 1-5.462-2.262l-83.564-83.564a7.724 7.724 0 0 1 0-10.924 7.724 7.724 0 0 1 10.924 0l83.563 83.564a7.724 7.724 0 0 1-5.461 13.186Z" fill="#6ED5A1"/><path d="M403.354 414.178c24.113 0 43.661-19.547 43.661-43.66 0-24.114-19.548-43.661-43.661-43.661-24.113 0-43.66 19.547-43.66 43.661 0 24.113 19.547 43.66 43.66 43.66Z" fill="#B0E7C9"/><path d="M400.528 363.146h-4.83a7.725 7.725 0 0 1-7.724-7.725 7.725 7.725 0 0 1 7.724-7.725h4.83a7.726 7.726 0 0 1 0 15.45ZM413.903 388.41h-4.458a7.725 7.725 0 1 1 0-15.45h4.458a7.726 7.726 0 0 1 0 15.45Z" fill="#6ED5A1"/><path d="M243.119 220.945c14.608 0 26.47-11.804 26.544-26.411l.886-177.608a29.71 29.71 0 0 1 1.077-7.815 29.576 29.576 0 0 1 4.111-8.82A28.63 28.63 0 0 0 271.681 0a28.464 28.464 0 0 0-20.197 8.363c-5.171 5.17-8.364 12.319-8.311 20.213l-.054 192.369ZM304.682 205.935c15.409 0 28.507-11.259 30.823-26.493l23.853-157a29.665 29.665 0 0 1 2.201-7.574c.232-.524.502-1.03.763-1.536a26.753 26.753 0 0 0-5.369-.55c-12.669 0-23.916 9.218-25.935 22.278l-26.336 170.875ZM369.646 205.935c15.351 0 28.816-10.24 32.917-25.032l31.95-115.246a31.538 31.538 0 0 1 1.014-2.993 24.666 24.666 0 0 0-5.053-.526c-10.619 0-20.651 6.86-23.885 17.87l-35.077 119.253-1.866 6.674Z" fill="#CB8874"/></g><defs><clipPath id="a"><path fill="#fff" d="M0 0h512v512H0z"/></clipPath></defs></svg>
